actions/22x22-light/edit-select-all-layers.svg

<svg viewBox="0 0 22 22" xmlns="http://www.w3.org/2000/svg"><path d="m3 3v4h1.3339844v-2.6660156h2.6660156v-1.3339844h-2.6660156zm12 0v1.3339844h2.666016v1.3320312 1.3339844h1.333984v-2.6660156-1.3339844zm-5.3339844 4-4 4h6.6679684l4-4zm0 5.333984-4 4h6.6679684l4-4zm-6.6660156 2.666016v1.333984 1.332032 1.333984h4v-1.333984h-2.6660156v-1.332032-1.333984zm14.666016 0v1.333984 1.332032h-1.332032-1.333984v1.333984h1.333984 1.332032 1.333984v-2.666016-1.333984z" fill="#4d4d4d"/></svg>

<svg xmlns="http://www.w3.org/2000/svg" viewBox="0 0 22 22">
  <defs id="defs3051">
    <style type="text/css" id="current-color-scheme">
      .ColorScheme-Text {
        color:#4d4d4d
      }
      </style>
  </defs>
 <path 
     style="fill:currentColor;fill-opacity:1;stroke:none"      
	 class="ColorScheme-Text"
        d="M 3 3 L 3 7 L 4.3339844 7 L 4.3339844 4.3339844 L 7 4.3339844 L 7 3 L 4.3339844 3 L 3 3 z M 15 3 L 15 4.3339844 L 17.666016 4.3339844 L 17.666016 5.6660156 L 17.666016 7 L 19 7 L 19 4.3339844 L 19 3 L 15 3 z M 9.6660156 7 L 5.6660156 11 L 12.333984 11 L 16.333984 7 L 9.6660156 7 z M 9.6660156 12.333984 L 5.6660156 16.333984 L 12.333984 16.333984 L 16.333984 12.333984 L 9.6660156 12.333984 z M 3 15 L 3 16.333984 L 3 17.666016 L 3 19 L 7 19 L 7 17.666016 L 4.3339844 17.666016 L 4.3339844 16.333984 L 4.3339844 15 L 3 15 z M 17.666016 15 L 17.666016 16.333984 L 17.666016 17.666016 L 16.333984 17.666016 L 15 17.666016 L 15 19 L 16.333984 19 L 17.666016 19 L 19 19 L 19 16.333984 L 19 15 L 17.666016 15 z "
     />
</svg>
